docs/img/about/icon-3.svg

<svg width="70" height="71" viewBox="0 0 70 71" fill="none" xmlns="http://www.w3.org/2000/svg">
<path d="M32.7828 32.4743C39.7201 32.4743 45.3439 26.8505 45.3439 19.9132C45.3439 12.9759 39.7201 7.35205 32.7828 7.35205C25.8455 7.35205 20.2217 12.9759 20.2217 19.9132C20.2217 26.8505 25.8455 32.4743 32.7828 32.4743Z" fill="white"/>
<path d="M40.8328 55.4382H54.4439V58.1605H40.8328V55.4382Z" fill="white"/>
<path d="M29.1662 59.327V65.1603C29.1662 65.676 29.371 66.1706 29.7357 66.5352C30.1003 66.8999 30.5949 67.1047 31.1106 67.1047H64.1662C64.6819 67.1047 65.1764 66.8999 65.5411 66.5352C65.9057 66.1706 66.1106 65.676 66.1106 65.1603V45.7158C66.1106 45.2001 65.9057 44.7056 65.5411 44.3409C65.1764 43.9763 64.6819 43.7714 64.1662 43.7714H50.555V40.9131C50.555 40.3974 50.3502 39.9028 49.9855 39.5381C49.6209 39.1735 49.1263 38.9686 48.6106 38.9686C48.0949 38.9686 47.6003 39.1735 47.2357 39.5381C46.871 39.9028 46.6662 40.3974 46.6662 40.9131V43.7714H42.7773V36.8103C39.4731 36.2706 36.1308 35.9975 32.7828 35.9936C25.3994 35.9622 18.0987 37.5485 11.3939 40.6408C10.2904 41.1616 9.35947 41.988 8.71152 43.0219C8.06357 44.0559 7.72583 45.254 7.73837 46.4742V59.327H29.1662ZM62.2217 63.2158H33.055V47.6603H46.6662V48.477C46.6662 48.9927 46.871 49.4872 47.2357 49.8519C47.6003 50.2165 48.0949 50.4214 48.6106 50.4214C49.1263 50.4214 49.6209 50.2165 49.9855 49.8519C50.3502 49.4872 50.555 48.9927 50.555 48.477V47.6603H62.2217V63.2158Z" fill="white"/>
</svg>

<svg width="70" height="71" fill="none" xmlns="http://www.w3.org/2000/svg"><path d="M32.783 32.474c6.937 0 12.56-5.623 12.56-12.56 0-6.938-5.623-12.562-12.56-12.562-6.938 0-12.561 5.624-12.561 12.561 0 6.938 5.623 12.561 12.56 12.561zm8.05 22.964h13.61v2.722h-13.61v-2.722z" fill="#fff"/><path d="M29.166 59.327v5.833a1.944 1.944 0 001.945 1.945h33.055a1.944 1.944 0 001.945-1.945V45.716a1.945 1.945 0 00-1.945-1.945H50.555v-2.858a1.944 1.944 0 10-3.889 0v2.858h-3.889v-6.96a62.452 62.452 0 00-9.994-.817 50.557 50.557 0 00-21.39 4.647 6.378 6.378 0 00-3.655 5.833v12.853h21.428zm33.056 3.889H33.055V47.66h13.611v.817a1.944 1.944 0 103.889 0v-.817h11.667v15.556z" fill="#fff"/></svg>
